markup/src/img/appStore.svg

<svg width="168" height="50" viewBox="0 0 168 50" fill="none" xmlns="http://www.w3.org/2000/svg">
<rect width="168" height="50" rx="5" fill="#201D24"/>
<path d="M133.074 37.5H135.397V21.873H133.074V37.5ZM153.99 27.5025L151.328 34.2774H151.248L148.486 27.5025H145.984L150.128 36.9713L147.765 42.2388H150.187L156.572 27.5025H153.99ZM140.82 35.7251C140.061 35.7251 138.999 35.3428 138.999 34.398C138.999 33.1919 140.321 32.7295 141.461 32.7295C142.481 32.7295 142.963 32.9503 143.583 33.252C143.402 34.6998 142.161 35.7251 140.82 35.7251ZM141.101 27.1606C139.42 27.1606 137.679 27.9048 136.958 29.5533L139.019 30.4175C139.46 29.5533 140.28 29.272 141.141 29.272C142.342 29.272 143.563 29.9951 143.583 31.2823V31.4429C143.162 31.2016 142.261 30.8399 141.161 30.8399C138.938 30.8399 136.677 32.0659 136.677 34.3579C136.677 36.4488 138.499 37.7959 140.54 37.7959C142.1 37.7959 142.963 37.0923 143.502 36.2676H143.583V37.4746H145.825V31.4829C145.825 28.7085 143.762 27.1606 141.101 27.1606ZM126.75 29.4048H123.447V24.0484H126.75C128.486 24.0484 129.472 25.4918 129.472 26.7265C129.472 27.9375 128.486 29.4048 126.75 29.4048ZM126.69 21.873H121.126V37.5H123.447V31.5796H126.69C129.264 31.5796 131.794 29.7085 131.794 26.7265C131.794 23.7451 129.264 21.873 126.69 21.873ZM96.3491 35.728C94.7449 35.728 93.4023 34.3784 93.4023 32.5264C93.4023 30.6529 94.7449 29.2841 96.3491 29.2841C97.9329 29.2841 99.1759 30.6529 99.1759 32.5264C99.1759 34.3784 97.9329 35.728 96.3491 35.728ZM99.0155 28.3775H98.9352C98.4142 27.7534 97.4113 27.1895 96.1489 27.1895C93.502 27.1895 91.0763 29.5259 91.0763 32.5264C91.0763 35.5064 93.502 37.8223 96.1489 37.8223C97.4113 37.8223 98.4142 37.2583 98.9352 36.6143H99.0155V37.3789C99.0155 39.4136 97.9329 40.5005 96.1887 40.5005C94.7658 40.5005 93.8836 39.4736 93.5224 38.6079L91.4978 39.4536C92.0787 40.8628 93.6221 42.5952 96.1887 42.5952C98.9158 42.5952 101.221 40.9839 101.221 37.0566V27.5118H99.0155V28.3775ZM102.826 37.5H105.15V21.873H102.826V37.5ZM108.579 32.3448C108.519 30.2905 110.163 29.2436 111.346 29.2436C112.268 29.2436 113.049 29.707 113.311 30.3711L108.579 32.3448ZM115.796 30.5723C115.355 29.3848 114.012 27.1895 111.265 27.1895C108.538 27.1895 106.273 29.3443 106.273 32.5059C106.273 35.4864 108.519 37.8223 111.526 37.8223C113.951 37.8223 115.355 36.3325 115.937 35.4663L114.132 34.2578C113.531 35.144 112.709 35.728 111.526 35.728C110.343 35.728 109.501 35.1841 108.96 34.1168L116.037 31.1768L115.796 30.5723ZM59.413 28.8208V31.0761H64.7859C64.6255 32.3448 64.2045 33.271 63.5629 33.9155C62.7807 34.7006 61.5577 35.5669 59.413 35.5669C56.1049 35.5669 53.5188 32.8886 53.5188 29.5659C53.5188 26.2431 56.1049 23.5645 59.413 23.5645C61.1974 23.5645 62.5002 24.2695 63.4627 25.1758L65.047 23.5845C63.7034 22.2959 61.9193 21.3091 59.413 21.3091C54.8814 21.3091 51.0723 25.0146 51.0723 29.5659C51.0723 34.1168 54.8814 37.8223 59.413 37.8223C61.8586 37.8223 63.7034 37.0166 65.1467 35.5064C66.6303 34.0161 67.0916 31.9219 67.0916 30.23C67.0916 29.707 67.0512 29.2236 66.971 28.8208H59.413ZM73.2001 35.728C71.5959 35.728 70.2124 34.3989 70.2124 32.5059C70.2124 30.5928 71.5959 29.2841 73.2001 29.2841C74.8037 29.2841 76.1871 30.5928 76.1871 32.5059C76.1871 34.3989 74.8037 35.728 73.2001 35.728ZM73.2001 27.1895C70.2722 27.1895 67.8868 29.4248 67.8868 32.5059C67.8868 35.5669 70.2722 37.8223 73.2001 37.8223C76.1269 37.8223 78.5128 35.5669 78.5128 32.5059C78.5128 29.4248 76.1269 27.1895 73.2001 27.1895ZM84.7894 35.728C83.1863 35.728 81.8023 34.3989 81.8023 32.5059C81.8023 30.5928 83.1863 29.2841 84.7894 29.2841C86.3936 29.2841 87.7765 30.5928 87.7765 32.5059C87.7765 34.3989 86.3936 35.728 84.7894 35.728ZM84.7894 27.1895C81.8626 27.1895 79.4772 29.4248 79.4772 32.5059C79.4772 35.5669 81.8626 37.8223 84.7894 37.8223C87.7173 37.8223 90.1026 35.5669 90.1026 32.5059C90.1026 29.4248 87.7173 27.1895 84.7894 27.1895Z" fill="#EFEFEF"/>
<path d="M55.3493 16.543C54.2336 16.543 53.2739 16.1486 52.5002 15.3716C51.726 14.594 51.334 13.6204 51.334 12.4883C51.334 11.3562 51.7262 10.3843 52.5002 9.60497C53.2739 8.82778 54.2336 8.43359 55.3493 8.43359C55.9177 8.43359 56.4482 8.5322 56.9551 8.73754C57.4623 8.94291 57.8772 9.22799 58.2039 9.60107L58.281 9.6892L57.4106 10.5632L57.3236 10.4558C57.1069 10.1884 56.8313 9.98061 56.4821 9.82958C56.1342 9.67893 55.7531 9.60937 55.3493 9.60937C54.5634 9.60937 53.9114 9.87742 53.3669 10.4224C53.3668 10.4225 53.3665 10.4225 53.3664 10.4226C52.8343 10.9785 52.5668 11.6554 52.5668 12.4883C52.5668 13.3218 52.8346 13.9988 53.3674 14.5549C53.9119 15.0996 54.5638 15.3691 55.3493 15.3691C56.0686 15.3691 56.6636 15.1674 57.1313 14.7681H57.1316C57.567 14.3964 57.8284 13.8941 57.9208 13.2539H55.2248V12.1016H59.086L59.1025 12.207C59.1342 12.4096 59.1565 12.6051 59.1565 12.793C59.1565 13.8682 58.8301 14.7459 58.1898 15.3916C57.4671 16.1612 56.5165 16.543 55.3493 16.543L55.3493 16.543ZM88.8768 16.543C87.7594 16.543 86.811 16.1484 86.0472 15.3716C86.0471 15.3715 86.0471 15.3715 86.0469 15.3713C86.0468 15.3712 86.0468 15.3712 86.0467 15.3711C85.2818 14.6026 84.9024 13.6287 84.9024 12.4883C84.9024 11.3478 85.2819 10.3739 86.0467 9.60545C86.0468 9.60537 86.0468 9.60533 86.0469 9.6052L86.0472 9.60495C86.811 8.82795 87.7594 8.43356 88.8768 8.43356C89.992 8.43356 90.9408 8.82805 91.7045 9.61667C92.4696 10.385 92.8493 11.357 92.8493 12.4883C92.8493 13.6287 92.4698 14.6026 91.705 15.3711L91.7048 15.3713C90.9405 16.1487 89.983 16.5429 88.8768 16.5429L88.8768 16.543ZM60.2614 16.375V8.60155H60.3859H64.8834V9.77734H61.4728V11.9121H64.5489V13.0644H61.4728V15.2012H64.8834V16.375H60.2614ZM67.712 16.375V9.77734H65.6198V8.60155H71.0156V9.77734H70.8912H68.9234V16.375H67.712ZM74.4641 16.375V8.60155H75.6755V8.72655V16.375H74.4641ZM78.7249 16.375V9.77734H76.6327V8.60155H82.0285V9.77734H81.9041H79.9363V16.375H78.7249ZM93.9246 16.375V8.60155H95.2906L98.767 14.1919L98.7371 13.1306V8.60155H99.9485V16.375H98.7497L95.1061 10.5022L95.136 11.5627V11.5644V16.375H93.9246ZM88.8768 15.3691C89.6627 15.3691 90.3042 15.0999 90.8271 14.5559L90.8279 14.5549L90.8286 14.5541C91.359 14.0213 91.6185 13.3353 91.6185 12.4882C91.6185 11.6433 91.3589 10.955 90.8286 10.4223L90.8279 10.4216L90.8271 10.4208C90.3043 9.8769 89.6629 9.60929 88.8768 9.60929C88.0895 9.60929 87.4481 9.87644 86.9154 10.4203L86.9149 10.4208C86.3943 10.9664 86.1351 11.6435 86.1351 12.4882C86.1351 13.335 86.3942 14.0099 86.9149 14.5556L86.9154 14.5561C87.4482 15.1001 88.0897 15.3691 88.8768 15.3691V15.3691Z" fill="#EFEFEF"/>
<path d="M25.7783 24.279L12.5293 38.4041C12.5298 38.407 12.5308 38.4094 12.5313 38.4124C12.9376 39.946 14.3322 41.0754 15.9875 41.0754C16.6492 41.0754 17.2704 40.8958 17.8031 40.5803L17.8454 40.5554L32.7589 31.9114L25.7783 24.279Z" fill="#EA4335"/>
<path d="M39.1825 21.8738L39.1698 21.865L32.7313 18.1159L25.4775 24.5994L32.7565 31.9099L39.1611 28.198C40.2839 27.5892 41.0462 26.4002 41.0462 25.029C41.0462 23.6678 40.2941 22.4847 39.1825 21.8738Z" fill="#FBBC04"/>
<path d="M12.5287 11.5954C12.4491 11.8904 12.4072 12.1994 12.4072 12.5203V37.4798C12.4072 37.8001 12.4486 38.1101 12.5292 38.4041L26.2342 24.6404L12.5287 11.5954Z" fill="#4285F4"/>
<path d="M25.8755 24.9999L32.7331 18.1136L17.8366 9.43838C17.2952 9.11263 16.6632 8.92463 15.987 8.92463C14.3318 8.92463 12.9353 10.056 12.5288 11.5916C12.5283 11.5931 12.5283 11.5941 12.5283 11.5955L25.8755 24.9999Z" fill="#34A853"/>
</svg>

<svg width="168" height="50" fill="none" xmlns="http://www.w3.org/2000/svg"><rect width="168" height="50" rx="5" fill="#201D24"/><path d="M133.074 37.5h2.323V21.873h-2.323V37.5zm20.916-9.997l-2.662 6.774h-.08l-2.762-6.774h-2.502l4.144 9.468-2.363 5.268h2.422l6.385-14.736h-2.582zm-13.17 8.222c-.759 0-1.821-.382-1.821-1.327 0-1.206 1.322-1.669 2.462-1.669 1.02 0 1.502.221 2.122.523-.181 1.448-1.422 2.473-2.763 2.473zm.281-8.564c-1.681 0-3.422.744-4.143 2.392l2.061.864c.441-.864 1.261-1.145 2.122-1.145 1.201 0 2.422.723 2.442 2.01v.16c-.421-.24-1.322-.602-2.422-.602-2.223 0-4.484 1.226-4.484 3.518 0 2.09 1.822 3.438 3.863 3.438 1.56 0 2.423-.704 2.962-1.528h.081v1.207h2.242v-5.992c0-2.774-2.063-4.322-4.724-4.322zm-14.351 2.244h-3.303v-5.357h3.303c1.736 0 2.722 1.444 2.722 2.679 0 1.21-.986 2.678-2.722 2.678zm-.06-7.532h-5.564V37.5h2.321v-5.92h3.243c2.574 0 5.104-1.871 5.104-4.853 0-2.982-2.53-4.854-5.104-4.854zM96.35 35.728c-1.605 0-2.948-1.35-2.948-3.202 0-1.873 1.343-3.242 2.947-3.242 1.584 0 2.827 1.369 2.827 3.242 0 1.852-1.243 3.202-2.827 3.202zm2.666-7.35h-.08c-.522-.625-1.525-1.189-2.787-1.189-2.647 0-5.073 2.337-5.073 5.337 0 2.98 2.426 5.296 5.073 5.296 1.262 0 2.265-.564 2.786-1.208h.08v.765c0 2.035-1.082 3.122-2.826 3.122-1.423 0-2.305-1.027-2.667-1.893l-2.024.846c.58 1.409 2.124 3.141 4.69 3.141 2.728 0 5.033-1.611 5.033-5.538v-9.545h-2.206v.866zm3.81 9.122h2.324V21.873h-2.324V37.5zm5.753-5.155c-.06-2.054 1.584-3.101 2.767-3.101.922 0 1.703.463 1.965 1.127l-4.732 1.974zm7.217-1.773c-.441-1.187-1.784-3.383-4.531-3.383-2.727 0-4.992 2.155-4.992 5.317 0 2.98 2.246 5.316 5.253 5.316 2.425 0 3.829-1.49 4.411-2.356l-1.805-1.208c-.601.886-1.423 1.47-2.606 1.47-1.183 0-2.025-.544-2.566-1.611l7.077-2.94-.241-.605zm-56.383-1.751v2.255h5.373c-.16 1.269-.582 2.195-1.223 2.84-.782.785-2.005 1.65-4.15 1.65-3.308 0-5.894-2.677-5.894-6s2.586-6.002 5.894-6.002c1.784 0 3.087.706 4.05 1.612l1.584-1.591c-1.344-1.29-3.128-2.276-5.634-2.276-4.532 0-8.34 3.706-8.34 8.257 0 4.55 3.808 8.256 8.34 8.256 2.446 0 4.29-.805 5.734-2.316 1.483-1.49 1.945-3.584 1.945-5.276 0-.523-.04-1.006-.121-1.41h-7.558zM73.2 35.728c-1.604 0-2.988-1.33-2.988-3.222 0-1.913 1.384-3.222 2.988-3.222s2.987 1.309 2.987 3.222c0 1.893-1.383 3.222-2.987 3.222zm0-8.539c-2.928 0-5.313 2.236-5.313 5.317 0 3.06 2.385 5.316 5.313 5.316 2.927 0 5.313-2.255 5.313-5.316 0-3.081-2.386-5.317-5.313-5.317zm11.59 8.539c-1.604 0-2.988-1.33-2.988-3.222 0-1.913 1.384-3.222 2.987-3.222 1.605 0 2.987 1.309 2.987 3.222 0 1.893-1.382 3.222-2.987 3.222zm0-8.539c-2.927 0-5.313 2.236-5.313 5.317 0 3.06 2.386 5.316 5.312 5.316 2.928 0 5.314-2.255 5.314-5.316 0-3.081-2.386-5.317-5.314-5.317zM55.35 16.543c-1.116 0-2.076-.394-2.85-1.171-.774-.778-1.166-1.752-1.166-2.884s.392-2.104 1.166-2.883c.774-.777 1.734-1.171 2.85-1.171a4.2 4.2 0 0 1 1.605.304c.507.205.922.49 1.249.863l.077.088-.87.874-.087-.107a2.158 2.158 0 0 0-.842-.626 2.829 2.829 0 0 0-1.133-.22c-.786 0-1.438.267-1.982.812-.533.556-.8 1.233-.8 2.066 0 .834.268 1.51.8 2.067.545.545 1.197.814 1.982.814.72 0 1.315-.202 1.782-.6.436-.373.697-.875.79-1.515h-2.696v-1.152h3.861l.017.105c.031.203.053.398.053.586 0 1.075-.326 1.953-.966 2.599-.723.77-1.673 1.151-2.84 1.151zm33.527 0c-1.118 0-2.066-.395-2.83-1.171-.765-.77-1.145-1.743-1.145-2.884 0-1.14.38-2.114 1.145-2.883.764-.777 1.712-1.171 2.83-1.171 1.115 0 2.064.394 2.828 1.183.765.768 1.144 1.74 1.144 2.871 0 1.14-.38 2.115-1.144 2.883-.764.778-1.722 1.172-2.828 1.172zm-28.616-.168V8.602h4.622v1.175h-3.41v2.135h3.076v1.152h-3.076v2.137h3.41v1.174h-4.622zm7.451 0V9.777H65.62V8.602h5.396v1.175h-2.093v6.598h-1.211zm6.752 0V8.602h1.212v7.773h-1.212zm4.26 0V9.777h-2.091V8.602h5.395v1.175h-2.092v6.598h-1.211zm15.2 0V8.602h1.367l3.476 5.59-.03-1.061V8.6h1.212v7.774h-1.2l-3.643-5.873.03 1.06v4.813h-1.211zm-5.047-1.006c.786 0 1.427-.27 1.95-.813v-.001h.002c.53-.534.79-1.22.79-2.067 0-.845-.26-1.533-.79-2.066h-.001v-.001c-.524-.544-1.165-.812-1.951-.812-.787 0-1.429.267-1.962.811-.52.546-.78 1.223-.78 2.068 0 .847.26 1.522.78 2.068.533.544 1.175.813 1.962.813z" fill="#EFEFEF"/><path d="M25.778 24.279L12.53 38.404l.002.008a3.58 3.58 0 0 0 3.457 2.663c.661 0 1.282-.18 1.815-.495l.042-.025 14.914-8.644-6.98-7.632z" fill="#EA4335"/><path d="M39.182 21.874l-.012-.009-6.439-3.75-7.254 6.484 7.28 7.31 6.404-3.711a3.599 3.599 0 0 0 1.885-3.169 3.594 3.594 0 0 0-1.864-3.155z" fill="#FBBC04"/><path d="M12.529 11.595a3.54 3.54 0 0 0-.122.925v24.96c0 .32.042.63.122.924L26.234 24.64 12.53 11.595z" fill="#4285F4"/><path d="M25.875 25l6.858-6.886-14.896-8.676a3.575 3.575 0 0 0-1.85-.513 3.584 3.584 0 0 0-3.458 2.667v.003L25.874 25z" fill="#34A853"/></svg>
